libs/ui/packages/crypto-icons/src/svg/MTL.svg

<svg width="24" height="24" viewBox="0 0 24 24" fill="none"><path fill="#1e1f25" d="M6 6.75h.75v10.5H6zM9.75 9h.75v6.75h-.75zm3.75 1.5h.75v3.75h-.75zm3.75-3.75H18v10.5h-.75z"/></svg>

<svg width="24" height="24" viewBox="0 0 24 24" fill="none">
<path d="M6 6.75H6.75V17.25H6V6.75ZM9.75 9H10.5V15.75H9.75V9ZM13.5 10.5H14.25V14.25H13.5V10.5ZM17.25 6.75H18V17.25H17.25V6.75Z" fill="#1E1F25"/>
</svg>
